X: 1
T: Celia's Song
M: C
L: 1/8
R: birthday song
K: C
C eeba2 z2 | C eeba2 z2 | C eeba2 e2 | f2 d4 z2 | 
w: Hap-py birth day Celia, | Hap-py birth day Celia, | Hap-py birth day to you | Ce-lia! | 
Dddba2z2 | Dddba2z2 | Dddba2 b2 | c'2 !fermata!c6  |]
w: Hap-py birth day Celia, | Hap-py birthday Celia, | Hap-py birth-day to you | Ce-lia! |]
